places/22/folder-desktop.svg

<?xml version="1.0" encoding="UTF-8" standalone="no"?>
<svg
   viewBox="0 0 22 22"
   version="1.1"
   id="svg1"
   xmlns="http://www.w3.org/2000/svg"
   xmlns:svg="http://www.w3.org/2000/svg">
  <defs
     id="defs3051">
        <style type="text/css" id="current-color-scheme"> .ColorScheme-Text { color:#eff0f1; } </style>
  </defs>
  <path
     style="fill:currentColor"
     d="m 5,5.6758277 v 4 h 2 l 2,-2 v -2 z M 13.5,6 C 11.56101,6 10,7.561 10,9.5 10,11.439 11.56101,13 13.5,13 15.43899,13 17,11.439 17,9.5 17,7.561 15.43899,6 13.5,6 Z m 0,1 C 14.885,7 16,8.115 16,9.5 16,10.885 14.885,12 13.5,12 12.115,12 11,10.885 11,9.5 11,8.115 12.115,7 13.5,7 Z M 9,8.6758277 l -1,1 H 9 Z M 13,8 v 2 h 1 1 V 9 H 14 V 8 Z m -8,4 v 2 h 2 l 1,1 v -1 h 0.2363281 v -2 z m -2,6 v 1 H 19 V 18 Z M 5,3 C 3.892,3 3,3.892 3,5 v 10 c 0,1.108 0.892,2 2,2 h 12 c 1.108,0 2,-0.892 2,-2 V 5 C 19,3.892 18.108,3 17,3 Z m 0,1 h 12 c 0.554,0 1,0.446 1,1 v 10 c 0,0.456911 -0.383925,0.9375 -1,0.9375 H 5 C 4.3525635,15.9375 4,15.468666 4,15 V 5 C 4,4.446 4.446,4 5,4 Z"
     class="ColorScheme-Text"
     id="path1" />
</svg>

<?xml version="1.0" encoding="UTF-8" standalone="no"?>
<svg
   viewBox="0 0 22 22"
   version="1.1"
   id="svg6"
   sodipodi:docname="folder-desktop.svg"
   inkscape:version="1.1.1 (3bf5ae0d25, 2021-09-20)"
   xmlns:inkscape="http://www.inkscape.org/namespaces/inkscape"
   xmlns:sodipodi="http://sodipodi.sourceforge.net/DTD/sodipodi-0.dtd"
   xmlns="http://www.w3.org/2000/svg"
   xmlns:svg="http://www.w3.org/2000/svg">
  <sodipodi:namedview
     id="namedview8"
     pagecolor="#ffffff"
     bordercolor="#666666"
     borderopacity="1.0"
     inkscape:pageshadow="2"
     inkscape:pageopacity="0.0"
     inkscape:pagecheckerboard="0"
     showgrid="false"
     inkscape:zoom="28.545455"
     inkscape:cx="11"
     inkscape:cy="11"
     inkscape:window-width="1920"
     inkscape:window-height="1013"
     inkscape:window-x="0"
     inkscape:window-y="0"
     inkscape:window-maximized="1"
     inkscape:current-layer="svg6" />
  <defs
     id="defs3051">
    <style
       type="text/css"
       id="current-color-scheme">
      .ColorScheme-Text {
        color:#232629
      }
      </style>
  </defs>
  <path
     style="fill:#eff0f1;fill-opacity:1"
     d="M 3 3 L 3 17 L 19 17 L 19 3 L 3 3 z M 4 4 L 18 4 L 18 16 L 4 16 L 4 4 z M 5 5 L 5 9 L 7 9 L 9 7 L 9 5 L 5 5 z M 13.5 6 C 11.56101 6 10 7.561 10 9.5 C 10 11.439 11.56101 13 13.5 13 C 15.43899 13 17 11.439 17 9.5 C 17 7.561 15.43899 6 13.5 6 z M 13.5 7 C 14.885 7 16 8.115 16 9.5 C 16 10.885 14.885 12 13.5 12 C 12.115 12 11 10.885 11 9.5 C 11 8.115 12.115 7 13.5 7 z M 9 8 L 8 9 L 9 9 L 9 8 z M 13 8 L 13 10 L 14 10 L 15 10 L 15 9 L 14 9 L 14 8 L 13 8 z M 5 12 L 5 14 L 7 14 L 8 15 L 8 14 L 8.2363281 14 L 8.2363281 12 L 5 12 z M 3 18 L 3 19 L 19 19 L 19 18 L 3 18 z "
     class="ColorScheme-Text"
     id="path4" />
</svg>
